svgs/regular/sitemap.svg

<svg xmlns="http://www.w3.org/2000/svg" viewBox="0 0 576 512"><!--! Font Awesome Pro 6.6.0 by @fontawesome - https://fontawesome.com License - https://fontawesome.com/license (Commercial License) Copyright 2024 Fonticons, Inc. --><path d="M320 80l0 64-64 0 0-64 64 0zM256 32c-26.5 0-48 21.5-48 48l0 64c0 26.5 21.5 48 48 48l8 0 0 40-152 0c-30.9 0-56 25.1-56 56l0 32-8 0c-26.5 0-48 21.5-48 48l0 64c0 26.5 21.5 48 48 48l64 0c26.5 0 48-21.5 48-48l0-64c0-26.5-21.5-48-48-48l-8 0 0-32c0-4.4 3.6-8 8-8l152 0 0 40-8 0c-26.5 0-48 21.5-48 48l0 64c0 26.5 21.5 48 48 48l64 0c26.5 0 48-21.5 48-48l0-64c0-26.5-21.5-48-48-48l-8 0 0-40 152 0c4.4 0 8 3.6 8 8l0 32-8 0c-26.5 0-48 21.5-48 48l0 64c0 26.5 21.5 48 48 48l64 0c26.5 0 48-21.5 48-48l0-64c0-26.5-21.5-48-48-48l-8 0 0-32c0-30.9-25.1-56-56-56l-152 0 0-40 8 0c26.5 0 48-21.5 48-48l0-64c0-26.5-21.5-48-48-48l-64 0zM48 368l64 0 0 64-64 0 0-64zm208 0l64 0 0 64-64 0 0-64zm208 0l64 0 0 64-64 0 0-64z"/></svg>

<svg xmlns="http://www.w3.org/2000/svg" viewBox="0 0 576 512"><!--! Font Awesome Pro 6.4.2 by @fontawesome - https://fontawesome.com License - https://fontawesome.com/license (Commercial License) Copyright 2023 Fonticons, Inc. --><path d="M320 80v64H256V80h64zM256 32c-26.5 0-48 21.5-48 48v64c0 26.5 21.5 48 48 48h8v40H112c-30.9 0-56 25.1-56 56v32H48c-26.5 0-48 21.5-48 48v64c0 26.5 21.5 48 48 48h64c26.5 0 48-21.5 48-48V368c0-26.5-21.5-48-48-48h-8V288c0-4.4 3.6-8 8-8H264v40h-8c-26.5 0-48 21.5-48 48v64c0 26.5 21.5 48 48 48h64c26.5 0 48-21.5 48-48V368c0-26.5-21.5-48-48-48h-8V280H464c4.4 0 8 3.6 8 8v32h-8c-26.5 0-48 21.5-48 48v64c0 26.5 21.5 48 48 48h64c26.5 0 48-21.5 48-48V368c0-26.5-21.5-48-48-48h-8V288c0-30.9-25.1-56-56-56H312V192h8c26.5 0 48-21.5 48-48V80c0-26.5-21.5-48-48-48H256zM48 368h64v64H48V368zm208 0h64v64H256V368zm208 0h64v64H464V368z"/></svg>
